X: 100424
T: THE PILGRIM HORNPIPE
R: hornpipe, reel
B: K\"ohler's Violin Repository, v.3, 1885 p.272 #2
F: http://www.archive.org/details/klersviolinrepos03rugg
Z: 2012 John Chambers <jc:trillian.mit.edu>
M: C|
L: 1/8
K: D
(uag) |\
(fd)AF (DF)Ad | (AF)fg  fe A2 | (FA)de (fg)fe | f2e2 e2(AG) |
(FA)de (fg)fe | (AB)AF uA2uA2 | (cd)ef (ge)cA | d2D2 D2 :||: (uAG) |
(FA)dA (fd)AF | (GB)eB (ge)cA | (FA)dA (fd)AF | G2E2 E2(AG) |
(FA)dA (fd)AF | (gf)ed (cB)AG | (Fd)AF (EB)AG | F2D2 D2 :|

%%sep 2 1 500

